packages/icons/src/envelope-open.svg

<svg width="24" height="24" viewBox="0 0 24 24" fill="none" xmlns="http://www.w3.org/2000/svg">
<path fill-rule="evenodd" clip-rule="evenodd" d="M12.0074 1.90564L20.8128 5.82224C21.4867 6.12196 21.9368 6.76573 21.9939 7.49267L22 7.64962V18C22 19.0543 21.1841 19.9181 20.1493 19.9945L20 20H4C2.94564 20 2.08183 19.1841 2.00549 18.1492L2 18V7.65004C2 6.91216 2.40569 6.2389 3.04724 5.89153L3.18826 5.82218L12.0074 1.90564ZM12.006 4.09296L4 7.65004V18H20V7.64962L12.006 4.09296ZM17.5563 9.15056L18.4395 10.945L11.9982 14.1154L5.60713 10.9435L6.49626 9.15203L12.001 11.884L17.5563 9.15056Z" fill="black"/>
</svg>

<svg xmlns="http://www.w3.org/2000/svg" width="24" height="24" fill="none" viewBox="0 0 24 24">
  <path fill="#000" fill-rule="evenodd" d="m12.007 1.906 8.806 3.916a2 2 0 0 1 1.18 1.67L22 7.65V18a2 2 0 0 1-1.85 1.994L20 20H4a2 2 0 0 1-1.995-1.85L2 18V7.65a2 2 0 0 1 1.047-1.758l.141-.07 8.82-3.916Zm-.001 2.187L4 7.65V18h16V7.65l-7.994-3.557Zm5.55 5.058.883 1.794-6.44 3.17-6.392-3.171.89-1.792L12 11.884l5.555-2.733Z" clip-rule="evenodd"/>
</svg>
